X: 4917
T: Brave Rapparee, The
R: jig
M: 6/8
K: Gmajor
ed|:cBc Aed|cBc ABc|dBG GAG|dBG GAB
cBc Aed|cBc AGE|c (3deg ede|1 cAA Aed:|2 cAA A2B||
|:cBc d (3efg|d (3efg ecA|B2c ded|ded dBG|
cBc d (3efg|d (3efg ~a3|~g3 d (3efg|1 cAA A2B:|2 cAA A||

